src/assets/images/Grouporange.svg

<svg width="363" height="482" viewBox="0 0 363 482" fill="none" xmlns="http://www.w3.org/2000/svg">
<g filter="url(#filter0_d)">
<path d="M175.577 228.875C175.577 228.875 129.819 210.429 157.511 210.07C185.202 209.712 171.189 194.221 188.935 209.139C206.681 224.057 213.605 204.728 206.504 217.529C199.404 230.33 223.159 220.683 209.305 235.242C195.451 249.802 210.777 309.86 190.181 292.456C169.584 275.051 206.868 226.405 179.904 238.478C152.941 250.552 175.577 228.875 175.577 228.875Z" stroke="url(#paint0_linear)" stroke-width="2" stroke-miterlimit="10"/>
<path d="M149.98 200.704C175.081 196.431 163.316 181.557 183.262 196.525C204.63 212.551 211.995 186.784 208.07 201.134C204.343 214.811 228.303 208.174 217.883 224.007C217.199 225.043 216.444 226.173 215.678 227.441C209.393 237.756 208.169 258.314 211.653 266.809C213.357 270.95 213.699 280.592 210.336 287.974C204.321 301.172 201.124 316.85 189.497 303.41C178.394 290.581 177.021 276.292 178.245 268.844C179.524 261.126 178.951 251.709 175.367 246.395C174.386 244.94 172.263 244.554 169.176 245.347C152.241 249.725 162.103 237.045 164.838 231.918C165.742 230.237 166.574 229.04 166.133 228.847C163.768 227.822 150.603 220.633 144.252 214.128C140.173 209.971 138.127 206.294 141.341 204.204C143.939 202.435 146.884 201.242 149.98 200.704Z" stroke="url(#paint1_linear)" stroke-width="2.27273" stroke-miterlimit="10"/>
<path d="M142.455 191.332C164.551 183.613 155.504 168.833 177.584 183.906C202.618 200.996 210.402 168.866 209.652 184.744C208.93 200.036 236.076 194.805 224.537 214.938C223.721 216.355 222.883 217.92 222.04 219.646C214.636 235.176 216.29 264.014 220.656 270.619C225.673 272.421 225.552 286.606 218.545 296.298C208.5 310.218 202.712 333.279 188.819 314.369C175.34 296.033 170.902 280.415 170.626 277.085C170.334 273.529 164.959 265.74 162.792 256.026C162.307 253.821 160.786 252.354 158.465 252.227C145.371 251.494 156.469 237.061 156.993 232.011C157.158 230.435 157.572 229.211 156.684 228.819C151.954 226.763 137.775 217.292 133.056 209.078C130.023 203.829 129.351 199.513 133.182 197.026C135.718 195.389 138.557 192.699 142.455 191.332Z" stroke="url(#paint2_linear)" stroke-width="2.54545" stroke-miterlimit="10"/>
<path d="M134.93 181.96C155.587 175.757 147.731 156.049 171.9 171.292C200.639 189.402 208.836 150.96 211.223 168.348C213.539 185.278 243.893 181.463 231.18 205.864C230.238 207.672 229.284 209.668 228.424 211.851C220 232.64 222.856 270.183 229.675 274.423C237.316 274.252 237.675 292.808 226.781 304.628C212.999 319.546 204.338 349.707 188.157 325.329C172.319 301.469 164.909 284.616 163.04 285.322C161.282 285.983 150.598 279.748 150.25 265.646C150.179 262.724 149.479 260.194 147.781 259.102C139.164 253.54 152.235 236.962 149.181 232.089C149.015 230.666 148.63 229.365 147.268 228.781C140.173 225.694 124.979 213.929 121.908 204.006C119.918 197.677 120.613 192.721 125.073 189.827C128.226 187.776 131.573 184.854 134.93 181.96Z" stroke="url(#paint3_linear)" stroke-width="2.81818" stroke-miterlimit="10"/>
<path d="M127.405 172.593C145.719 164.44 139.985 143.259 166.221 158.679C198.693 177.764 207.309 133.054 212.789 151.953C218.175 170.515 251.749 168.144 237.823 196.795C236.674 199.158 235.652 201.582 234.764 204.056C225.392 230.115 229.405 276.352 238.65 278.232C248.921 276.077 249.853 299.181 234.968 312.964C217.563 329.056 205.931 366.136 187.452 336.294C169.259 306.916 158.784 288.679 155.405 293.569C152.097 298.316 136.049 293.663 137.659 275.283C137.984 271.595 138.1 268.232 137.052 265.982C132.73 256.671 147.091 236.857 141.319 232.199C140.567 230.695 139.327 229.49 137.802 228.781C128.342 224.668 112.128 210.616 110.684 198.984C109.741 191.569 111.787 185.968 116.892 182.671C120.734 180.162 124.351 176.403 127.405 172.593Z" stroke="url(#paint4_linear)" stroke-width="3.09091" stroke-miterlimit="10"/>
<path d="M119.874 163.221C135.862 153.122 132.251 130.425 160.537 146.065C196.763 166.094 205.788 115.138 214.36 135.563C222.828 155.74 259.627 154.825 244.466 187.721C243.192 190.498 242.077 193.346 241.126 196.25C230.811 227.58 236.164 284.071 247.647 282.025C260.983 279.66 262.097 305.665 243.176 321.266C222.123 338.632 207.618 382.493 186.774 347.232C166.298 312.286 152.704 292.765 147.797 301.784C142.968 310.676 121.467 307.49 125.089 284.892C125.806 280.427 126.545 276.253 126.346 272.846C125.58 259.726 141.33 237.784 133.48 232.277C131.991 231.235 130.58 229.713 128.358 228.743C116.533 223.605 99.3052 207.242 99.4982 193.918C99.6029 185.417 103.032 179.176 108.738 175.477C113.242 172.544 117.129 168.001 119.874 163.221Z" stroke="url(#paint5_linear)" stroke-width="3.36364" stroke-miterlimit="10"/>
<path d="M112.349 153.85C125.971 141.804 124.527 117.569 154.859 133.452C194.85 154.401 204.277 97.204 215.932 119.168C227.509 140.96 267.511 141.512 251.115 178.652C249.713 181.848 248.501 185.125 247.488 188.465C236.263 225.071 242.851 289.903 256.645 285.846C272.632 281.121 274.358 312.231 251.391 329.602C226.665 348.302 209.228 398.927 186.09 358.198C163.261 317.733 146.601 296.883 140.184 310.031C133.794 323.053 106.902 321.294 112.52 294.518C113.622 289.258 114.957 284.203 115.64 279.721C118.292 262.394 136.457 237.53 125.641 232.365C123.623 231.406 121.578 229.878 118.915 228.721C104.725 222.546 86.4822 203.912 88.3125 188.868C89.4592 179.281 94.261 172.401 100.59 168.293C105.75 164.942 109.89 159.577 112.349 153.85Z" stroke="url(#paint6_linear)" stroke-width="3.63636" stroke-miterlimit="10"/>
<path d="M104.824 144.483C116.098 130.486 116.809 104.696 149.175 120.832C192.948 142.664 202.772 79.2648 217.497 102.777C232.156 126.169 275.411 128.203 257.742 169.578C256.216 173.191 254.911 176.893 253.833 180.664C241.705 222.563 249.423 295.797 265.625 289.655C284.209 282.604 286.613 318.835 259.561 337.926C231.175 357.993 210.843 415.35 185.417 369.157C160.223 323.168 140.515 300.995 132.57 318.267C124.648 335.429 92.3259 335.076 99.9503 304.138C101.444 298.073 103.374 292.119 104.912 286.595C111.031 264.885 131.473 237.222 117.779 232.458C115.21 231.56 112.558 230.049 109.444 228.693C92.9048 221.493 73.6371 200.577 77.0992 183.818C77.9985 179.199 79.8178 174.808 82.4488 170.907C85.0799 167.006 88.4689 163.674 92.4141 161.11C98.2579 157.328 102.69 151.154 104.824 144.483Z" stroke="url(#paint7_linear)" stroke-width="3.90909" stroke-miterlimit="10"/>
<path d="M97.2986 135.111C103.953 118.092 109.091 91.8066 143.497 108.219C191.052 130.91 201.262 61.32 219.068 86.3819C236.875 111.444 283.311 114.889 264.401 160.509C262.75 164.538 261.351 168.666 260.211 172.869C247.206 220.027 255.972 301.706 274.639 293.459C295.764 284.131 298.896 325.473 267.814 346.251C235.706 367.702 212.431 431.773 184.728 380.111C157.191 328.609 134.434 305.135 124.957 326.504C115.48 347.872 77.7332 348.842 87.3808 313.763C89.2663 306.91 91.7912 300.019 94.2279 293.47C103.865 267.311 126.479 236.913 109.962 232.546C106.825 231.714 103.578 230.214 100.039 228.687C81.1236 220.462 60.8471 197.264 65.952 178.784C68.8084 168.53 75.3418 159.686 84.3046 153.943C90.7658 149.715 94.4539 142.404 97.2986 135.111Z" stroke="url(#paint8_linear)" stroke-width="4.18182" stroke-miterlimit="10"/>
<path d="M89.7679 125.744C94.7296 107.331 101.378 78.8843 137.813 95.6051C189.161 119.134 199.812 43.3314 220.64 70.003C241.534 96.5367 291.205 101.592 271.044 151.451C269.27 155.9 267.775 160.455 266.568 165.09C252.686 217.518 262.466 307.655 283.658 297.285C307.298 285.708 311.184 332.149 276.039 354.62C240.211 377.454 214.085 448.191 184.045 391.071C154.154 334.045 128.364 309.231 117.338 334.74C106.312 360.248 63.1459 362.602 74.8058 323.383C77.0827 315.731 80.2526 307.908 83.5163 300.339C96.7032 269.704 121.412 236.61 102.117 232.635C98.4012 231.868 94.5752 230.38 90.5728 228.643C69.2929 219.387 48.0019 193.884 54.7387 173.712C59.0168 160.867 67.9312 152.063 76.1234 146.738C83.2737 142.107 87.5021 134.135 89.7679 125.744Z" stroke="url(#paint9_linear)" stroke-width="4.45455" stroke-miterlimit="10"/>
<path d="M82.2427 116.373C85.6497 96.3661 93.6711 66.0009 132.135 82.9917C187.264 107.348 198.29 25.3981 222.205 53.5967C246.12 81.7954 299.193 88.2897 277.687 142.355C275.799 147.224 274.211 152.205 272.93 157.268C258.271 214.994 268.938 313.581 292.639 301.073C318.792 287.29 323.434 338.803 284.231 362.906C244.704 387.207 215.678 464.625 183.345 402.048C151.011 339.47 122.261 313.35 109.736 342.976C97.2104 372.603 48.5752 376.357 62.2418 333.009C64.91 324.552 68.714 315.803 72.8101 307.214C89.5749 272.086 116.362 236.323 94.3106 232.723C89.7753 231.901 85.359 230.522 81.1622 228.616C57.5172 218.329 35.1843 190.544 43.5584 168.685C48.8894 154.732 59.1711 145.282 67.9918 139.554C75.7816 134.505 80.6385 125.822 82.2427 116.373Z" stroke="url(#paint10_linear)" stroke-width="4.72727" stroke-miterlimit="10"/>
<path d="M59.8326 132.371C68.2895 126.858 73.8134 117.453 74.7176 107.011C76.603 85.2187 85.9584 53.0948 126.451 70.3889C185.384 95.5555 196.741 7.46972 223.776 37.212C250.812 66.9543 307.022 74.9646 284.331 133.303C261.639 191.641 272.979 320.908 301.636 304.893C330.292 288.878 335.7 345.501 292.446 371.241C249.191 396.981 217.288 481.048 182.661 412.985C148.034 344.922 116.158 317.468 102.1 351.24C88.0423 385.012 33.9935 390.106 49.6723 342.634C65.3511 295.163 117.261 236.819 86.4436 232.817C55.6262 228.814 20.4757 191.635 32.3727 163.607C38.7732 148.59 50.3945 138.501 59.8326 132.371Z" stroke="url(#paint11_linear)" stroke-width="5" stroke-miterlimit="10"/>
</g>
<defs>
<filter id="filter0_d" x="-8.50574" y="-3.50049" width="371.031" height="485.001" filterUnits="userSpaceOnUse" color-interpolation-filters="sRGB">
<feFlood flood-opacity="0" result="BackgroundImageFix"/>
<feColorMatrix in="SourceAlpha" type="matrix" values="0 0 0 0 0 0 0 0 0 0 0 0 0 0 0 0 0 0 127 0"/>
<feOffset dy="4"/>
<feGaussianBlur stdDeviation="18"/>
<feColorMatrix type="matrix" values="0 0 0 0 1 0 0 0 0 0.105882 0 0 0 0 0.105882 0 0 0 1 0"/>
<feBlend mode="normal" in2="BackgroundImageFix" result="effect1_dropShadow"/>
<feBlend mode="normal" in="SourceGraphic" in2="effect1_dropShadow" result="shape"/>
</filter>
<linearGradient id="paint0_linear" x1="148.051" y1="249.129" x2="214.294" y2="249.129" gradientUnits="userSpaceOnUse">
<stop stop-color="#FFB914"/>
<stop offset="1" stop-color="#FF1B1B"/>
</linearGradient>
<linearGradient id="paint1_linear" x1="18640.1" y1="53678.4" x2="30658.6" y2="53678.4" gradientUnits="userSpaceOnUse">
<stop stop-color="#FF1B1B"/>
<stop offset="1" stop-color="#FFB914"/>
</linearGradient>
<linearGradient id="paint2_linear" x1="20683.5" y1="65249.8" x2="37945.3" y2="65249.8" gradientUnits="userSpaceOnUse">
<stop stop-color="#FF1B1B"/>
<stop offset="0.885417" stop-color="#FFB914"/>
</linearGradient>
<linearGradient id="paint3_linear" x1="22354.7" y1="77181.8" x2="46401.1" y2="77181.8" gradientUnits="userSpaceOnUse">
<stop stop-color="#FFB914"/>
<stop offset="1" stop-color="#FF1B1B"/>
</linearGradient>
<linearGradient id="paint4_linear" x1="23945" y1="89860.6" x2="57820" y2="89860.6" gradientUnits="userSpaceOnUse">
<stop stop-color="#FFB914"/>
<stop offset="1" stop-color="#FF1B1B"/>
</linearGradient>
<linearGradient id="paint5_linear" x1="24670.6" y1="102344" x2="70509.8" y2="102344" gradientUnits="userSpaceOnUse">
<stop stop-color="#FFB914"/>
<stop offset="1" stop-color="#FF1B1B"/>
</linearGradient>
<linearGradient id="paint6_linear" x1="24417.4" y1="114679" x2="84155.1" y2="114679" gradientUnits="userSpaceOnUse">
<stop stop-color="#FF1B1B"/>
<stop offset="1" stop-color="#FFB914"/>
</linearGradient>
<linearGradient id="paint7_linear" x1="23197.2" y1="126826" x2="98769.6" y2="126826" gradientUnits="userSpaceOnUse">
<stop stop-color="#FFB914"/>
<stop offset="1" stop-color="#FF1B1B"/>
</linearGradient>
<linearGradient id="paint8_linear" x1="20992.1" y1="138787" x2="114325" y2="138787" gradientUnits="userSpaceOnUse">
<stop stop-color="#FFB914"/>
<stop offset="1" stop-color="#FF1B1B"/>
</linearGradient>
<linearGradient id="paint9_linear" x1="17804.8" y1="150558" x2="130862" y2="150558" gradientUnits="userSpaceOnUse">
<stop stop-color="#FF1B1B"/>
<stop offset="1" stop-color="#FFB914"/>
</linearGradient>
<linearGradient id="paint10_linear" x1="13618.1" y1="162153" x2="148313" y2="162153" gradientUnits="userSpaceOnUse">
<stop stop-color="#FF1B1B"/>
<stop offset="1" stop-color="#FFB914"/>
</linearGradient>
<linearGradient id="paint11_linear" x1="8436.2" y1="173545" x2="166719" y2="173545" gradientUnits="userSpaceOnUse">
<stop stop-color="#FFB914"/>
<stop offset="1" stop-color="#FF1B1B"/>
</linearGradient>
</defs>
</svg>

<svg width="363" height="482" fill="none" xmlns="http://www.w3.org/2000/svg"><g filter="url(#filter0_d)" stroke-miterlimit="10"><path d="M175.577 228.875s-45.758-18.446-18.066-18.805c27.691-.358 13.678-15.849 31.424-.931s24.67-4.411 17.569 8.39c-7.1 12.801 16.655 3.154 2.801 17.713-13.854 14.56 1.472 74.618-19.124 57.214-20.597-17.405 16.687-66.051-10.277-53.978-26.963 12.074-4.327-9.603-4.327-9.603z" stroke="url(#paint0_linear)" stroke-width="2"/><path d="M149.98 200.704c25.101-4.273 13.336-19.147 33.282-4.179 21.368 16.026 28.733-9.741 24.808 4.609-3.727 13.677 20.233 7.04 9.813 22.873-.684 1.036-1.439 2.166-2.205 3.434-6.285 10.315-7.509 30.873-4.025 39.368 1.704 4.141 2.046 13.783-1.317 21.165-6.015 13.198-9.212 28.876-20.839 15.436-11.103-12.829-12.476-27.118-11.252-34.566 1.279-7.718.706-17.135-2.878-22.449-.981-1.455-3.104-1.841-6.191-1.048-16.935 4.378-7.073-8.302-4.338-13.429.904-1.681 1.736-2.878 1.295-3.071-2.365-1.025-15.53-8.214-21.881-14.719-4.079-4.157-6.125-7.834-2.911-9.924a22.058 22.058 0 018.639-3.5z" stroke="url(#paint1_linear)" stroke-width="2.273"/><path d="M142.455 191.332c22.096-7.719 13.049-22.499 35.129-7.426 25.034 17.09 32.818-15.04 32.068.838-.722 15.292 26.424 10.061 14.885 30.194a78.18 78.18 0 00-2.497 4.708c-7.404 15.53-5.75 44.368-1.384 50.973 5.017 1.802 4.896 15.987-2.111 25.679-10.045 13.92-15.833 36.981-29.726 18.071-13.479-18.336-17.917-33.954-18.193-37.284-.292-3.556-5.667-11.345-7.834-21.059-.485-2.205-2.006-3.672-4.327-3.799-13.094-.733-1.996-15.166-1.472-20.216.165-1.576.579-2.8-.309-3.192-4.73-2.056-18.909-11.527-23.628-19.741-3.033-5.249-3.705-9.565.126-12.052 2.536-1.637 5.375-4.327 9.273-5.694z" stroke="url(#paint2_linear)" stroke-width="2.545"/><path d="M134.93 181.96c20.657-6.203 12.801-25.911 36.97-10.668 28.739 18.11 36.936-20.332 39.323-2.944 2.316 16.93 32.67 13.115 19.957 37.516a62.571 62.571 0 00-2.756 5.987c-8.424 20.789-5.568 58.332 1.251 62.572 7.641-.171 8 18.385-2.894 30.205-13.782 14.918-22.443 45.079-38.624 20.701-15.838-23.86-23.248-40.713-25.117-40.007-1.758.661-12.442-5.574-12.79-19.676-.071-2.922-.771-5.452-2.469-6.544-8.617-5.562 4.454-22.14 1.4-27.013-.166-1.423-.551-2.724-1.913-3.308-7.095-3.087-22.289-14.852-25.36-24.775-1.99-6.329-1.295-11.285 3.165-14.179 3.153-2.051 6.5-4.973 9.857-7.867z" stroke="url(#paint3_linear)" stroke-width="2.818"/><path d="M127.405 172.593c18.314-8.153 12.58-29.334 38.816-13.914 32.472 19.085 41.088-25.625 46.568-6.726 5.386 18.562 38.96 16.191 25.034 44.842a73.014 73.014 0 00-3.059 7.261c-9.372 26.059-5.359 72.296 3.886 74.176 10.271-2.155 11.203 20.949-3.682 34.732-17.405 16.092-29.037 53.172-47.516 23.33-18.193-29.378-28.668-47.615-32.047-42.725-3.308 4.747-19.356.094-17.746-18.286.325-3.688.441-7.051-.607-9.301-4.322-9.311 10.039-29.125 4.267-33.783a7.438 7.438 0 00-3.517-3.418c-9.46-4.113-25.674-18.165-27.118-29.797-.943-7.415 1.103-13.016 6.208-16.313 3.842-2.509 7.459-6.268 10.513-10.078z" stroke="url(#paint4_linear)" stroke-width="3.091"/><path d="M119.874 163.221c15.988-10.099 12.377-32.796 40.663-17.156 36.226 20.029 45.251-30.927 53.823-10.502 8.468 20.177 45.267 19.262 30.106 52.158a80.644 80.644 0 00-3.34 8.529c-10.315 31.33-4.962 87.821 6.521 85.775 13.336-2.365 14.45 23.64-4.471 39.241-21.053 17.366-35.558 61.227-56.402 25.966-20.476-34.946-34.07-54.467-38.977-45.448-4.829 8.892-26.33 5.706-22.708-16.892.717-4.465 1.456-8.639 1.257-12.046-.766-13.12 14.984-35.062 7.134-40.569-1.489-1.042-2.9-2.564-5.122-3.534-11.825-5.138-29.053-21.501-28.86-34.825.105-8.501 3.534-14.742 9.24-18.441 4.504-2.933 8.391-7.476 11.136-12.256z" stroke="url(#paint5_linear)" stroke-width="3.364"/><path d="M112.349 153.85c13.622-12.046 12.178-36.281 42.51-20.398 39.991 20.949 49.418-36.248 61.073-14.284 11.577 21.792 51.579 22.344 35.183 59.484a88.032 88.032 0 00-3.627 9.813c-11.225 36.606-4.637 101.438 9.157 97.381 15.987-4.725 17.713 26.385-5.254 43.756-24.726 18.7-42.163 69.325-65.301 28.596-22.829-40.465-39.489-61.315-45.906-48.167-6.39 13.022-33.282 11.263-27.664-15.513 1.102-5.26 2.437-10.315 3.12-14.797 2.652-17.327 20.817-42.191 10.001-47.356-2.018-.959-4.063-2.487-6.726-3.644-14.19-6.175-32.433-24.809-30.603-39.853 1.147-9.587 5.949-16.467 12.278-20.575 5.16-3.351 9.3-8.716 11.759-14.443z" stroke="url(#paint6_linear)" stroke-width="3.636"/><path d="M104.824 144.483c11.274-13.997 11.985-39.787 44.351-23.651 43.773 21.832 53.597-41.567 68.322-18.055 14.659 23.392 57.914 25.426 40.245 66.801a97.048 97.048 0 00-3.909 11.086c-12.128 41.899-4.41 115.133 11.792 108.991 18.584-7.051 20.988 29.18-6.064 48.271-28.386 20.067-48.718 77.424-74.144 31.231-25.194-45.989-44.902-68.162-52.847-50.89-7.922 17.162-40.244 16.809-32.62-14.129 1.494-6.065 3.424-12.019 4.962-17.543 6.119-21.71 26.561-49.373 12.867-54.137-2.569-.898-5.221-2.409-8.335-3.765-16.54-7.2-35.807-28.116-32.345-44.875a35.08 35.08 0 0115.315-22.708c5.844-3.782 10.276-9.956 12.41-16.627z" stroke="url(#paint7_linear)" stroke-width="3.909"/><path d="M97.299 135.111c6.654-17.019 11.792-43.304 46.198-26.892 47.555 22.691 57.765-46.899 75.571-21.837 17.807 25.062 64.243 28.507 45.333 74.127a105.277 105.277 0 00-4.19 12.36c-13.005 47.158-4.239 128.837 14.428 120.59 21.125-9.328 24.257 32.014-6.825 52.792-32.108 21.451-55.383 85.522-83.086 33.86-27.537-51.502-50.294-74.976-59.771-53.607-9.477 21.368-47.224 22.338-37.576-12.741 1.885-6.853 4.41-13.744 6.847-20.293 9.637-26.159 32.251-56.557 15.734-60.924-3.137-.832-6.384-2.332-9.923-3.859-18.915-8.225-39.192-31.423-34.087-49.903a43.305 43.305 0 0118.353-24.841c6.46-4.228 10.149-11.539 12.994-18.832z" stroke="url(#paint8_linear)" stroke-width="4.182"/><path d="M89.768 125.744c4.962-18.413 11.61-46.86 48.045-30.139 51.348 23.529 61.999-52.274 82.827-25.602 20.894 26.534 70.565 31.589 50.404 81.448a115.216 115.216 0 00-4.476 13.639c-13.882 52.428-4.102 142.565 17.09 132.195 23.64-11.577 27.526 34.864-7.619 57.335-35.828 22.834-61.954 93.571-91.994 36.451-29.891-57.026-55.681-81.84-66.707-56.331-11.026 25.508-54.192 27.862-42.532-11.357 2.277-7.652 5.447-15.475 8.71-23.044 13.187-30.635 37.896-63.729 18.601-67.704-3.716-.767-7.542-2.255-11.544-3.992-21.28-9.256-42.571-34.759-35.834-54.931 4.278-12.845 13.192-21.649 21.384-26.974 7.15-4.631 11.38-12.603 13.645-20.994z" stroke="url(#paint9_linear)" stroke-width="4.455"/><path d="M82.243 116.373c3.407-20.007 11.428-50.372 49.892-33.381 55.129 24.356 66.155-57.594 90.07-29.395 23.915 28.198 76.988 34.693 55.482 88.758a128.289 128.289 0 00-4.757 14.913c-14.659 57.726-3.992 156.313 19.709 143.805 26.153-13.783 30.795 37.73-8.408 61.833-39.527 24.301-68.553 101.719-100.886 39.142-32.334-62.578-61.084-88.698-73.609-59.072-12.526 29.627-61.16 33.381-47.494-9.967 2.668-8.457 6.472-17.206 10.568-25.795 16.765-35.128 43.552-70.891 21.5-74.491a55.909 55.909 0 01-13.148-4.107c-23.645-10.287-45.978-38.072-37.604-59.931 5.331-13.953 15.613-23.403 24.434-29.131 7.79-5.049 12.646-13.732 14.25-23.181z" stroke="url(#paint10_linear)" stroke-width="4.727"/><path d="M59.833 132.371c8.457-5.513 13.98-14.918 14.885-25.36 1.885-21.792 11.24-53.916 51.733-36.622 58.933 25.166 70.29-62.92 97.325-33.177 27.036 29.742 83.246 37.753 60.555 96.091-22.692 58.338-11.352 187.605 17.305 171.59 28.656-16.015 34.064 40.608-9.19 66.348-43.255 25.74-75.158 109.807-109.785 41.744-34.627-68.063-66.503-95.517-80.561-61.745-14.058 33.772-68.106 38.866-52.428-8.606 15.68-47.471 67.589-105.815 36.772-109.817-30.818-4.003-65.968-41.182-54.071-69.21 6.4-15.017 18.022-25.106 27.46-31.236z" stroke="url(#paint11_linear)" stroke-width="5"/></g><defs><linearGradient id="paint0_linear" x1="148.051" y1="249.129" x2="214.294" y2="249.129" gradientUnits="userSpaceOnUse"><stop stop-color="#FFB914"/><stop offset="1" stop-color="#FF1B1B"/></linearGradient><linearGradient id="paint1_linear" x1="18640.1" y1="53678.4" x2="30658.6" y2="53678.4" gradientUnits="userSpaceOnUse"><stop stop-color="#FF1B1B"/><stop offset="1" stop-color="#FFB914"/></linearGradient><linearGradient id="paint2_linear" x1="20683.5" y1="65249.8" x2="37945.3" y2="65249.8" gradientUnits="userSpaceOnUse"><stop stop-color="#FF1B1B"/><stop offset=".885" stop-color="#FFB914"/></linearGradient><linearGradient id="paint3_linear" x1="22354.7" y1="77181.8" x2="46401.1" y2="77181.8" gradientUnits="userSpaceOnUse"><stop stop-color="#FFB914"/><stop offset="1" stop-color="#FF1B1B"/></linearGradient><linearGradient id="paint4_linear" x1="23945" y1="89860.6" x2="57820" y2="89860.6" gradientUnits="userSpaceOnUse"><stop stop-color="#FFB914"/><stop offset="1" stop-color="#FF1B1B"/></linearGradient><linearGradient id="paint5_linear" x1="24670.6" y1="102344" x2="70509.8" y2="102344" gradientUnits="userSpaceOnUse"><stop stop-color="#FFB914"/><stop offset="1" stop-color="#FF1B1B"/></linearGradient><linearGradient id="paint6_linear" x1="24417.4" y1="114679" x2="84155.1" y2="114679" gradientUnits="userSpaceOnUse"><stop stop-color="#FF1B1B"/><stop offset="1" stop-color="#FFB914"/></linearGradient><linearGradient id="paint7_linear" x1="23197.2" y1="126826" x2="98769.6" y2="126826" gradientUnits="userSpaceOnUse"><stop stop-color="#FFB914"/><stop offset="1" stop-color="#FF1B1B"/></linearGradient><linearGradient id="paint8_linear" x1="20992.1" y1="138787" x2="114325" y2="138787" gradientUnits="userSpaceOnUse"><stop stop-color="#FFB914"/><stop offset="1" stop-color="#FF1B1B"/></linearGradient><linearGradient id="paint9_linear" x1="17804.8" y1="150558" x2="130862" y2="150558" gradientUnits="userSpaceOnUse"><stop stop-color="#FF1B1B"/><stop offset="1" stop-color="#FFB914"/></linearGradient><linearGradient id="paint10_linear" x1="13618.1" y1="162153" x2="148313" y2="162153" gradientUnits="userSpaceOnUse"><stop stop-color="#FF1B1B"/><stop offset="1" stop-color="#FFB914"/></linearGradient><linearGradient id="paint11_linear" x1="8436.2" y1="173545" x2="166719" y2="173545" gradientUnits="userSpaceOnUse"><stop stop-color="#FFB914"/><stop offset="1" stop-color="#FF1B1B"/></linearGradient><filter id="filter0_d" x="-8.506" y="-3.5" width="371.031" height="485.001" filterUnits="userSpaceOnUse" color-interpolation-filters="sRGB"><feFlood flood-opacity="0" result="BackgroundImageFix"/><feColorMatrix in="SourceAlpha" values="0 0 0 0 0 0 0 0 0 0 0 0 0 0 0 0 0 0 127 0"/><feOffset dy="4"/><feGaussianBlur stdDeviation="18"/><feColorMatrix values="0 0 0 0 1 0 0 0 0 0.105882 0 0 0 0 0.105882 0 0 0 1 0"/><feBlend in2="BackgroundImageFix" result="effect1_dropShadow"/><feBlend in="SourceGraphic" in2="effect1_dropShadow" result="shape"/></filter></defs></svg>
